;FLAVOR:Marlin
;TIME:2146
;Filament used: 1.48142m
;Layer height: 0.28
;MINX:89
;MINY:89
;MINZ:0.28
;MAXX:131
;MAXY:131
;MAXZ:19.88
;Generated with Cura_SteamEngine 5.2.1
M82 ;absolute extrusion mode
; Ender 3 Custom Start G-code
G92 E0 ; Reset Extruder
G28 ; Home all axes
M104 S175 ; Start heating up the nozzle most of the way
M190 S60 ; Start heating the bed, wait until target temperature reached
M109 S200 ; Finish heating the nozzle
G1 Z2.0 F3000 ; Move Z Axis up little to prevent scratching of Heat Bed
G1 X0.1 Y20 Z0.3 F5000.0 ; Move to start position
G1 X0.1 Y200.0 Z0.3 F1500.0 E15 ; Draw the first line
G1 X0.4 Y200.0 Z0.3 F5000.0 ; Move to side a little
G1 X0.4 Y20 Z0.3 F1500.0 E30 ; Draw the second line
G92 E0 ; Reset Extruder
G1 Z2.0 F3000 ; Move Z Axis up little to prevent scratching of Heat Bed
G1 X5 Y20 Z0.3 F5000.0 ; Move over to prevent blob squish
G92 E0
G92 E0
G1 F1500 E-6.5
;LAYER_COUNT:71
;LAYER:0
M107
G0 F6000 X92.198 Y92.264 Z0.28
;TYPE:SKIRT
G1 F1500 E0
G1 F1200 X92.886 Y91.627 E0.04366
G1 X93.626 Y91.051 E0.08732
G1 X94.412 Y90.539 E0.131
G1 X95.239 Y90.097 E0.17467
G1 X96.101 Y89.727 E0.21835
G1 X96.991 Y89.431 E0.26202
G1 X97.903 Y89.213 E0.30568
G1 X98.83 Y89.072 E0.34935
G1 X99.701 Y89.013 E0.39
G1 X100.33 Y89 E0.41929
G1 X119.451 Y89.001 E1.30965
G1 X120.149 Y89.011 E1.34215
G1 X121.085 Y89.065 E1.38581
G1 X122.013 Y89.197 E1.42945
G1 X122.927 Y89.409 E1.47314
G1 X123.819 Y89.698 E1.5168
G1 X124.684 Y90.061 E1.56048
G1 X125.514 Y90.497 E1.60414
G1 X126.305 Y91.002 E1.64784
G1 X127.049 Y91.573 E1.69151
G1 X127.742 Y92.205 E1.73518
G1 X128.379 Y92.893 E1.77884
G1 X128.954 Y93.634 E1.82252
G1 X129.465 Y94.42 E1.86617
G1 X129.907 Y95.248 E1.90987
G1 X130.276 Y96.11 E1.95354
G1 X130.571 Y97 E1.9972
G1 X130.789 Y97.912 E2.04086
G1 X130.929 Y98.84 E2.08456
G1 X130.987 Y99.701 E2.12474
G1 X131 Y100.33 E2.15404
G1 X130.999 Y119.4 E3.04202
G1 X130.99 Y120.127 E3.07587
G1 X130.939 Y121.064 E3.11957
G1 X130.807 Y121.992 E3.16321
G1 X130.598 Y122.906 E3.20687
G1 X130.311 Y123.799 E3.25055
G1 X129.949 Y124.665 E3.29425
G1 X129.515 Y125.496 E3.33791
G1 X129.011 Y126.287 E3.38158
G1 X128.442 Y127.032 E3.42523
G1 X127.811 Y127.727 E3.46894
G1 X127.124 Y128.365 E3.5126
G1 X126.385 Y128.942 E3.55626
G1 X125.599 Y129.454 E3.59994
G1 X124.773 Y129.897 E3.64358
G1 X123.911 Y130.269 E3.6873
G1 X123.022 Y130.565 E3.73093
G1 X122.11 Y130.785 E3.77461
G1 X121.183 Y130.926 E3.81827
G1 X120.299 Y130.987 E3.85953
G1 X119.67 Y131 E3.88883
G1 X100.565 Y130.999 E4.77844
G1 X99.867 Y130.99 E4.81094
G1 X98.931 Y130.938 E4.85459
G1 X98.002 Y130.806 E4.89829
G1 X97.088 Y130.596 E4.94195
G1 X96.195 Y130.309 E4.98563
G1 X95.33 Y129.946 E5.02931
G1 X94.499 Y129.512 E5.07297
G1 X93.708 Y129.008 E5.11664
G1 X92.963 Y128.438 E5.16032
G1 X92.269 Y127.807 E5.20399
G1 X91.632 Y127.12 E5.24762
G1 X91.055 Y126.38 E5.29131
G1 X90.543 Y125.594 E5.33499
G1 X90.1 Y124.767 E5.37868
G1 X89.729 Y123.906 E5.42233
G1 X89.433 Y123.016 E5.46601
G1 X89.214 Y122.104 E5.50968
G1 X89.073 Y121.177 E5.55334
G1 X89.013 Y120.288 E5.59483
G1 X89 Y119.658 E5.62417
G1 X89.001 Y100.525 E6.51509
G1 X89.01 Y99.86 E6.54606
G1 X89.063 Y98.924 E6.58971
G1 X89.195 Y97.995 E6.6334
G1 X89.406 Y97.081 E6.67708
G1 X89.694 Y96.189 E6.72073
G1 X90.057 Y95.324 E6.76441
G1 X90.492 Y94.493 E6.80808
G1 X90.996 Y93.703 E6.85172
G1 X91.566 Y92.958 E6.8954
G1 X92.198 Y92.264 E6.93911
G0 F6000 X92.589 Y92.439
G1 F1200 X93.274 Y91.823 E6.982
G1 X94.01 Y91.27 E7.02487
G1 X94.791 Y90.782 E7.06775
G1 X95.611 Y90.364 E7.11061
G1 X96.465 Y90.019 E7.1535
G1 X97.345 Y89.749 E7.19636
G1 X98.245 Y89.557 E7.23921
G1 X99.159 Y89.443 E7.2821
G1 X99.712 Y89.413 E7.30789
G1 X100.33 Y89.4 E7.33667
G1 X119.293 Y89.4 E8.21967
G1 X120.143 Y89.411 E8.25925
G1 X121.062 Y89.464 E8.30211
G1 X121.973 Y89.597 E8.34498
G1 X122.869 Y89.808 E8.38785
G1 X123.743 Y90.096 E8.43069
G1 X124.59 Y90.459 E8.4736
G1 X125.401 Y90.894 E8.51646
G1 X126.171 Y91.398 E8.55931
G1 X126.895 Y91.967 E8.60219
G1 X127.567 Y92.597 E8.64508
G1 X128.182 Y93.282 E8.68794
G1 X128.735 Y94.018 E8.73081
G1 X129.222 Y94.799 E8.77367
G1 X129.639 Y95.62 E8.81655
G1 X129.984 Y96.474 E8.85943
G1 X130.253 Y97.354 E8.90228
G1 X130.445 Y98.255 E8.94518
G1 X130.558 Y99.168 E8.98802
G1 X130.587 Y99.712 E9.01338
G1 X130.6 Y100.33 E9.04217
G1 X130.599 Y119.395 E9.92991
G1 X130.59 Y120.122 E9.96377
G1 X130.539 Y121.041 E10.00663
G1 X130.408 Y121.953 E10.04953
G1 X130.198 Y122.849 E10.09238
G1 X129.912 Y123.724 E10.13525
G1 X129.551 Y124.571 E10.17812
G1 X129.117 Y125.383 E10.22099
G1 X128.615 Y126.155 E10.26387
G1 X128.047 Y126.88 E10.30676
G1 X127.419 Y127.553 E10.34962
G1 X126.735 Y128.169 E10.39248
G1 X126 Y128.723 E10.43534
G1 X125.22 Y129.212 E10.4782
G1 X124.4 Y129.631 E10.52108
G1 X123.547 Y129.977 E10.56395
G1 X122.667 Y130.248 E10.60682
G1 X121.767 Y130.441 E10.64968
G1 X120.853 Y130.556 E10.69258
G1 X120.288 Y130.587 E10.71893
G1 X119.67 Y130.6 E10.74771
G1 X100.57 Y130.599 E11.63708
G1 X99.872 Y130.59 E11.66959
G1 X98.953 Y130.538 E11.71245
G1 X98.042 Y130.407 E11.75531
G1 X97.146 Y130.197 E11.79816
G1 X96.271 Y129.91 E11.84104
G1 X95.424 Y129.548 E11.88393
G1 X94.612 Y129.114 E11.9268
G1 X93.841 Y128.612 E11.96964
G1 X93.116 Y128.044 E12.01253
G1 X92.443 Y127.415 E12.05542
G1 X91.828 Y126.731 E12.09825
G1 X91.274 Y125.996 E12.14111
G1 X90.786 Y125.215 E12.18399
G1 X90.367 Y124.395 E12.22687
G1 X90.021 Y123.542 E12.26973
G1 X89.751 Y122.662 E12.31259
G1 X89.558 Y121.761 E12.3555
G1 X89.444 Y120.848 E12.39834
G1 X89.413 Y120.277 E12.42497
G1 X89.4 Y119.658 E12.4538
G1 X89.401 Y100.531 E13.34443
G1 X89.41 Y99.866 E13.3754
G1 X89.462 Y98.946 E13.41831
G1 X89.594 Y98.035 E13.46117
G1 X89.805 Y97.139 E13.50403
G1 X90.092 Y96.264 E13.54691
G1 X90.455 Y95.418 E13.58978
G1 X90.889 Y94.606 E13.63265
G1 X91.392 Y93.835 E13.67552
G1 X91.961 Y93.111 E13.7184
G1 X92.589 Y92.439 E13.76122
G0 F6000 X92.981 Y92.617
G1 F1200 X93.662 Y92.024 E13.80327
G1 X94.394 Y91.494 E13.84535
G1 X95.169 Y91.031 E13.88739
G1 X95.982 Y90.638 E13.92944
G1 X96.827 Y90.318 E13.97151
G1 X97.696 Y90.075 E14.01353
G1 X98.584 Y89.909 E14.05559
G1 X99.723 Y89.813 E14.10882
G1 X100.33 Y89.8 E14.13709
G1 X119.293 Y89.8 E15.02009
G1 X120.137 Y89.811 E15.05939
G1 X121.039 Y89.864 E15.10146
G1 X121.932 Y89.996 E15.1435
G1 X122.81 Y90.207 E15.18554
G1 X123.666 Y90.495 E15.2276
G1 X124.493 Y90.857 E15.26963
G1 X125.285 Y91.292 E15.31171
G1 X126.036 Y91.794 E15.35377
G1 X126.739 Y92.361 E15.39583
G1 X127.389 Y92.988 E15.43788
G1 X127.981 Y93.67 E15.47993
G1 X128.511 Y94.401 E15.52198
G1 X128.973 Y95.177 E15.56403
G1 X129.366 Y95.99 E15.60608
G1 X129.684 Y96.835 E15.64812
G1 X129.927 Y97.705 E15.69018
G1 X130.092 Y98.593 E15.73224
G1 X130.187 Y99.723 E15.78504
G1 X130.2 Y100.33 E15.81331
G1 X130.199 Y119.39 E16.70082
G1 X130.19 Y120.117 E16.73468
G1 X130.139 Y121.019 E16.77675
G1 X130.008 Y121.913 E16.81882
G1 X129.799 Y122.791 E16.86084
G1 X129.513 Y123.648 E16.90291
G1 X129.152 Y124.476 E16.94497
G1 X128.72 Y125.268 E16.98698
G1 X128.219 Y126.02 E17.02906
G1 X127.653 Y126.724 E17.07112
G1 X127.028 Y127.375 E17.11314
G1 X126.347 Y127.969 E17.15522
G1 X125.616 Y128.5 E17.19729
G1 X124.842 Y128.964 E17.23931
G1 X124.029 Y129.358 E17.28138
G1 X123.185 Y129.678 E17.32341
G1 X122.315 Y129.923 E17.3655
G1 X121.428 Y130.089 E17.40752
G1 X120.277 Y130.187 E17.4613
G1 X119.67 Y130.2 E17.48958
G1 X100.575 Y130.199 E18.37872
G1 X99.877 Y130.19 E18.41122
G1 X98.976 Y130.139 E18.45324
G1 X98.082 Y130.007 E18.49532
G1 X97.204 Y129.798 E18.53735
G1 X96.347 Y129.511 E18.57943
G1 X95.52 Y129.15 E18.62145
G1 X94.727 Y128.717 E18.66352
G1 X93.976 Y128.216 E18.70556
G1 X93.272 Y127.65 E18.74762
G1 X92.621 Y127.024 E18.78968
G1 X92.028 Y126.343 E18.83172
G1 X91.498 Y125.612 E18.87377
G1 X91.034 Y124.837 E18.91583
G1 X90.64 Y124.024 E18.9579
G1 X90.32 Y123.18 E18.99993
G1 X90.076 Y122.31 E19.042
G1 X89.91 Y121.422 E19.08407
G1 X89.813 Y120.267 E19.13804
G1 X89.8 Y119.658 E19.1664
G1 X89.801 Y100.536 E20.0568
G1 X89.81 Y99.871 E20.08777
G1 X89.862 Y98.969 E20.12984
G1 X89.994 Y98.076 E20.17187
G1 X90.204 Y97.198 E20.21391
G1 X90.491 Y96.341 E20.25599
G1 X90.853 Y95.514 E20.29803
G1 X91.286 Y94.722 E20.34006
G1 X91.788 Y93.971 E20.38212
G1 X92.355 Y93.267 E20.42421
G1 X92.981 Y92.617 E20.46624
G1 F1500 E13.96624
;MESH:XYZO_Cube_20mm_2.0_1.0.stl
G0 F6000 X100.414 Y99.335
G0 X100.6 Y119.4
;TYPE:WALL-INNER
G1 F1500 E20.46624
G1 F1200 X119.4 Y119.4 E21.34164
G1 X119.4 Y100.6 E22.21705
G1 X100.6 Y100.6 E23.09246
G1 X100.6 Y119.4 E23.96786
G0 F6000 X100.2 Y119.8
;TYPE:WALL-OUTER
G1 F1200 X119.8 Y119.8 E24.88052
G1 X119.8 Y100.2 E25.79318
G1 X100.2 Y100.2 E26.70584
G1 X100.2 Y119.8 E27.61849
G1 F1500 E21.11849
G0 F6000 X100.47 Y119.53
G0 X109.682 Y119.58
G0 X109.785 Y115.775
G0 X109.692 Y115.592
;TYPE:WALL-INNER
G1 F1500 E27.61849
G1 F1200 X109.431 Y115.572 E27.63068
G1 X109.11 Y115.529 E27.64576
G1 X108.835 Y115.478 E27.65879
G1 X108.569 Y115.416 E27.67151
G1 X108.109 Y115.274 E27.69392
G1 X107.699 Y115.107 E27.71454
G1 X107.441 Y114.982 E27.72789
G1 X107.185 Y114.841 E27.74149
G1 X106.949 Y114.695 E27.75442
G1 X106.724 Y114.544 E27.76703
G1 X106.465 Y114.344 E27.78227
G1 X106.264 Y114.174 E27.79453
G1 X106.038 Y113.961 E27.80899
G1 X105.829 Y113.738 E27.82322
G1 X105.658 Y113.54 E27.8354
G1 X105.461 Y113.28 E27.85059
G1 X105.29 Y113.031 E27.86466
G1 X105.142 Y112.786 E27.87799
G1 X105.001 Y112.527 E27.89172
G1 X104.877 Y112.263 E27.9053
G1 X104.729 Y111.906 E27.9233
G1 X104.585 Y111.435 E27.94623
G1 X104.489 Y111.032 E27.96552
G1 X104.428 Y110.568 E27.98731
G1 X104.408 Y110.306 E27.99955
G1 X104.4 Y110.018 E28.01296
G1 X104.408 Y109.692 E28.02815
G1 X104.428 Y109.431 E28.04034
G1 X104.471 Y109.11 E28.05542
G1 X104.522 Y108.835 E28.06844
G1 X104.584 Y108.569 E28.08116
G1 X104.726 Y108.109 E28.10357
G1 X104.893 Y107.699 E28.12419
G1 X105.018 Y107.441 E28.13754
G1 X105.144 Y107.211 E28.14975
G1 X105.48 Y106.691 E28.17858
G1 X105.656 Y106.465 E28.19192
G1 X105.825 Y106.265 E28.20411
G1 X106.038 Y106.039 E28.21857
G1 X106.261 Y105.83 E28.2328
G1 X106.459 Y105.659 E28.24498
G1 X106.72 Y105.461 E28.26024
G1 X106.969 Y105.29 E28.2743
G1 X107.214 Y105.142 E28.28763
G1 X107.471 Y105.002 E28.30126
G1 X107.709 Y104.889 E28.31353
G1 X108.094 Y104.729 E28.33294
G1 X108.565 Y104.585 E28.35587
G1 X108.968 Y104.489 E28.37516
G1 X109.432 Y104.428 E28.39696
G1 X109.694 Y104.408 E28.40919
G1 X110.017 Y104.4 E28.42424
G1 X110.308 Y104.408 E28.43779
G1 X110.569 Y104.428 E28.44998
G1 X110.89 Y104.471 E28.46506
G1 X111.165 Y104.522 E28.47808
G1 X111.431 Y104.584 E28.4908
G1 X111.891 Y104.726 E28.51322
G1 X112.301 Y104.893 E28.53383
G1 X112.559 Y105.018 E28.54718
G1 X112.789 Y105.144 E28.55939
G1 X113.309 Y105.48 E28.58822
G1 X113.535 Y105.656 E28.60156
G1 X113.735 Y105.825 E28.61375
G1 X113.961 Y106.038 E28.62821
G1 X114.17 Y106.261 E28.64245
G1 X114.341 Y106.459 E28.65463
G1 X114.539 Y106.72 E28.66988
G1 X114.71 Y106.969 E28.68395
G1 X114.858 Y107.214 E28.69728
G1 X114.997 Y107.47 E28.71084
G1 X115.123 Y107.736 E28.72455
G1 X115.273 Y108.098 E28.74279
G1 X115.415 Y108.565 E28.76552
G1 X115.503 Y108.932 E28.78309
G1 X115.572 Y109.431 E28.80655
G1 X115.592 Y109.693 E28.81879
G1 X115.6 Y110.016 E28.83383
G1 X115.592 Y110.308 E28.84743
G1 X115.572 Y110.569 E28.85962
G1 X115.529 Y110.89 E28.8747
G1 X115.478 Y111.165 E28.88773
G1 X115.416 Y111.431 E28.90044
G1 X115.274 Y111.891 E28.92286
G1 X115.107 Y112.301 E28.94347
G1 X114.982 Y112.559 E28.95682
G1 X114.856 Y112.789 E28.96904
G1 X114.52 Y113.309 E28.99786
G1 X114.344 Y113.535 E29.0112
G1 X114.175 Y113.735 E29.02339
G1 X113.962 Y113.961 E29.03786
G1 X113.739 Y114.17 E29.05209
G1 X113.541 Y114.341 E29.06427
G1 X113.28 Y114.539 E29.07952
G1 X113.031 Y114.71 E29.09359
G1 X112.786 Y114.858 E29.10692
G1 X112.529 Y114.998 E29.12054
G1 X112.291 Y115.111 E29.13281
G1 X111.877 Y115.28 E29.15363
G1 X111.435 Y115.415 E29.17515
G1 X111.032 Y115.511 E29.19444
G1 X110.568 Y115.572 E29.21624
G1 X110.306 Y115.592 E29.22847
G1 X109.983 Y115.6 E29.24352
G1 X109.692 Y115.592 E29.25707
G0 F6000 X109.994 Y115.2
;TYPE:WALL-OUTER
G1 F1200 X109.722 Y115.193 E29.26974
G1 X109.451 Y115.172 E29.2824
G1 X109.182 Y115.135 E29.29504
G1 X108.926 Y115.088 E29.30716
G1 X108.647 Y115.023 E29.3205
G1 X108.275 Y114.909 E29.33862
G1 X107.873 Y114.747 E29.3588
G1 X107.633 Y114.631 E29.37121
G1 X107.395 Y114.5 E29.38386
G1 X107.172 Y114.363 E29.39605
G1 X106.947 Y114.212 E29.40867
G1 X106.723 Y114.038 E29.42187
G1 X106.514 Y113.861 E29.43463
G1 X106.317 Y113.673 E29.44731
G1 X106.132 Y113.476 E29.45989
G1 X105.953 Y113.268 E29.47267
G1 X105.79 Y113.052 E29.48527
G1 X105.632 Y112.823 E29.49822
G1 X105.493 Y112.594 E29.5107
G1 X105.363 Y112.355 E29.52337
G1 X105.247 Y112.11 E29.53599
G1 X105.092 Y111.734 E29.55493
G1 X104.974 Y111.341 E29.57403
G1 X104.882 Y110.955 E29.59251
G1 X104.827 Y110.538 E29.6121
G1 X104.807 Y110.266 E29.6248
G1 X104.8 Y110.007 E29.63686
G1 X104.807 Y109.722 E29.65013
G1 X104.828 Y109.451 E29.66279
G1 X104.865 Y109.182 E29.67544
G1 X104.912 Y108.926 E29.68755
G1 X104.977 Y108.647 E29.70089
G1 X105.091 Y108.275 E29.71901
G1 X105.253 Y107.873 E29.73919
G1 X105.369 Y107.633 E29.75161
G1 X105.502 Y107.391 E29.76446
G1 X105.785 Y106.951 E29.78882
G1 X105.962 Y106.723 E29.80226
G1 X106.138 Y106.515 E29.81495
G1 X106.326 Y106.318 E29.82763
G1 X106.523 Y106.133 E29.84021
G1 X106.731 Y105.954 E29.85299
G1 X106.948 Y105.79 E29.86566
G1 X107.177 Y105.632 E29.87861
G1 X107.406 Y105.493 E29.89109
G1 X107.643 Y105.364 E29.90365
G1 X107.89 Y105.247 E29.91638
G1 X108.266 Y105.092 E29.93532
G1 X108.659 Y104.974 E29.95442
G1 X109.045 Y104.882 E29.9729
G1 X109.462 Y104.827 E29.99249
G1 X109.734 Y104.807 E30.00518
G1 X110.006 Y104.8 E30.01785
G1 X110.278 Y104.807 E30.03052
G1 X110.549 Y104.828 E30.04318
G1 X110.818 Y104.865 E30.05582
G1 X111.074 Y104.912 E30.06794
G1 X111.353 Y104.977 E30.08128
G1 X111.725 Y105.091 E30.0994
G1 X112.127 Y105.253 E30.11958
G1 X112.367 Y105.369 E30.13199
G1 X112.609 Y105.502 E30.14485
G1 X113.049 Y105.785 E30.16921
G1 X113.277 Y105.962 E30.18265
G1 X113.485 Y106.138 E30.19534
G1 X113.682 Y106.326 E30.20802
G1 X113.867 Y106.523 E30.2206
G1 X114.046 Y106.731 E30.23338
G1 X114.21 Y106.948 E30.24605
G1 X114.368 Y107.177 E30.259
G1 X114.507 Y107.406 E30.27148
G1 X114.636 Y107.642 E30.284
G1 X114.753 Y107.889 E30.29673
G1 X114.91 Y108.27 E30.31591
G1 X115.026 Y108.658 E30.33477
G1 X115.118 Y109.045 E30.35329
G1 X115.173 Y109.461 E30.37283
G1 X115.193 Y109.733 E30.38553
G1 X115.2 Y110.005 E30.3982
G1 X115.193 Y110.278 E30.41092
G1 X115.172 Y110.549 E30.42358
G1 X115.135 Y110.818 E30.43622
G1 X115.088 Y111.074 E30.44834
G1 X115.023 Y111.353 E30.46168
G1 X114.909 Y111.725 E30.4798
G1 X114.747 Y112.127 E30.49998
G1 X114.631 Y112.367 E30.51239
G1 X114.498 Y112.609 E30.52525
G1 X114.215 Y113.049 E30.54961
G1 X114.038 Y113.277 E30.56305
G1 X113.862 Y113.485 E30.57574
G1 X113.674 Y113.682 E30.58842
G1 X113.477 Y113.867 E30.601
G1 X113.269 Y114.046 E30.61378
G1 X113.052 Y114.21 E30.62644
G1 X112.823 Y114.368 E30.6394
G1 X112.594 Y114.507 E30.65187
G1 X112.357 Y114.636 E30.66444
G1 X112.109 Y114.754 E30.67722
G1 X111.726 Y114.91 E30.69648
G1 X111.341 Y115.026 E30.7152
G1 X110.955 Y115.118 E30.73368
G1 X110.538 Y115.173 E30.75327
G1 X110.266 Y115.193 E30.76597
G1 X109.994 Y115.2 E30.77864
G0 F6000 X110.015 Y115.96
;TYPE:SKIN
G1 F1200 X109.702 Y115.953 E30.79322
G1 X109.349 Y115.926 E30.8097
G1 X109.077 Y115.889 E30.82248
G1 X108.803 Y115.839 E30.83545
G1 X108.422 Y115.751 E30.85366
G1 X108.038 Y115.632 E30.87238
G1 X107.583 Y115.45 E30.8952
G1 X107.303 Y115.316 E30.90965
G1 X106.995 Y115.146 E30.92603
G1 X106.747 Y114.994 E30.93958
G1 X106.513 Y114.837 E30.9527
G1 X106.229 Y114.617 E30.96943
G1 X106.022 Y114.441 E30.98208
G1 X105.796 Y114.229 E30.99651
G1 X105.578 Y113.997 E31.01133
G1 X105.377 Y113.766 E31.02559
G1 X105.183 Y113.51 E31.04055
G1 X104.981 Y113.218 E31.05708
G1 X104.842 Y112.99 E31.06951
G1 X104.694 Y112.719 E31.08389
G1 X104.544 Y112.402 E31.10022
